X: 21
T: Miss Bennett's Whim
T: Laleston Whim, The
O:Welsh
M:2/4
R:reel
Q:1/4=112
L:1/8
Z:Alf Warnock - alf0@rogers.com
K:G
G/A/|"G"BG B2|"C"cA "D"Ad/c/|"G"BG GA|"D"F3G/A/|
"G"BG AG|BG "D"Gd/c/|"G"Be "A"A^c|"D"d3:|
|:B/c/|"G"dB zd|"C"cA zc|"G"BA GB|"D"AF ED|
"C"EG "D"FA|"G"GB "D7"Ac|"G"B2 "D7"A>G|"G"G3:|
